!!!OTL: Pax eterna ab eterno patre
**kern
*staff1
=1-
*clefC4
*k[]
0D
0A
1B-
=2
0A
0G
1F
=3
0G
0F
0G
0A
=4
*met(c|)
*M2/2
!LO:TX:Y=126:t=P
0A
0B-
0A
0G
1F
1G
0D
0F
=5
!!linebreak:original
1F
0G
0F
1F
=6
!LO:TX:Y=-35:t=P
0A
0B
0A
0G
1F
=7
!LO:TX:Y=-38:t=P
1G
1F
0E
0D
1A
1A
=8
!!linebreak:original
1A
0D
0F
0E
0D
0F
0G
0F
=9
!LO:TX:Y=-35:t=P
0A
0G
0F
0G
1F
=10
!LO:TX:Y=-35:t=P
!LO:TX:Y=-35:t=P
1D
1F
0F
0G
0D
0C
1F
=11
!!linebreak:original
!LO:TX:Y=-39:t=P
0G
0A
1A
0B-
0A
0G
0F
=12
!LO:TX:Y=-40:t=P
1G
1F
0E
0D
0F
0G
0A
0B-
0G
0F
!!linebreak:original
=13
!LO:TX:Y=-40:t=P
!LO:TX:Y=-39:t=P
!LO:TX:Y=-41:t=P
1A
1A
1A
1c
1B
1G
=14
!LO:TX:Y=-41:t=P
1B
1A
1B
1c
=15
1A
1G
1A
1d
=16
!LO:TX:Y=-42:t=P
!LO:TX:Y=-42:t=P
!LO:TX:Y=-40:t=P
1c
1B
1A
1d
=17
!LO:TX:Y=-37:t=P
1c
1B
1G
1B
=18
!LO:TX:Y=-358:t=P
!LO:TX:Y=-40:t=P
1A
1B
1c
1A
=19
!!pagebreak:original
1G
1A
1A
1G
=20
1F
1G
1A
1A
=21
1G
1F
1G
1D
=22
1D
1C
1F
1G
=23
!LO:TX:Y=122:t=P
1A
1c
1B
1G
=24
!LO:TX:Y=119:t=P
1B
1A
1B
1c
=25
!!linebreak:original
1A
1G
1A
1d
=26
!LO:TX:Y=-39:t=P
!LO:TX:Y=-40:t=P
1c
1B
1G
1B
=27
!LO:TX:Y=-39:t=P
1A
1B
1c
1A
=28
1G
1A
1A
1G
=29
!LO:TX:Y=-37:t=P
!LO:TX:Y=-41:t=P
1F
1G
1A
1E
!!linebreak:original
=30
!LO:TX:Y=-40:t=P
1F
1G
1A
1D
=31
!LO:TX:Y=-201:t=P
!LO:TX:Y=-39:t=P
1D
1C
1G
1E
=32
!LO:TX:Y=-36:t=P
!LO:TX:Y=-34:t=P
1E
1G
1A
1D
=33
!LO:TX:Y=-39:t=P
!LO:TX:Y=-38:t=P
1D
1C
1F
=34
0E
0F
0D
0C
0D
==
*-
!!title: @{OTL}, @{GTL}, ed. @{ENC}
!!!pag:
!!!GTL: Hymnbook D
!!!EFL: 
!!!YEM: Creative Commons CC/BY/NC/SA 4.0
!!!ENC: Marcin Konik
!!!END: 2015-0m-dd
!!!EED: Marcin Konik
!!!EEV: 
!!!ONB: Encoded in vim by Marcin Konik
!!!CharacterEncoding: utf-8
!!!RDF**kern: l=long note in original notation
!!!RDF**kern: i=editorial accidental
!!muse2ps: z14jc180F
!!!COM: Anonim
!!!CDT: [?]
!!!TXO: Polish
!!!ODT: 
!!!GTL: Hymnbook D
!!!ARL: Opactwo św. Wojciecha, Staniątki 
!!!voices:	1
